X: 3
I: linebreak $
T: Bugill
T: for three
C: Richard Schweitzer, CC BY-NC-SA 3.0
P: AAA BBB CDEE
N: Permission granted to copy within the SCA.
K: F major
M: 6/8
L: 1/8
P: A (3x)
"^Drone F/C"c3 A3 | G2A B2A | F3 A3 | G2A B3 | c3 A3 | G2A B3 | 
c2B FG2 | F6 "^(3)":: 
P: B (3x)
G2G G2G | G2A B3 "^(3)":| A2
P: C
G F2A | c6 | 
P: D
G2F G2F | G2A B3 |: 
P: E
c2B AG2 | F6 :| 

